SFASUI/src/images/logo-text.svg

<svg width="190" height="56" viewBox="0 0 190 56" fill="none" xmlns="http://www.w3.org/2000/svg">
<g filter="url(#filter0_i_163_6471)">
<path d="M11.6012 14.6716C10.7423 12.0478 10.6281 10.2697 10.6223 10.1565C8.98198 11.611 7.78064 13.5465 7.21729 15.7393C7.34898 15.7599 9.18683 16.0143 11.6012 14.6716Z" fill="#33CCCC"/>
<path d="M17.9518 7.3623C15.4628 7.3623 13.1743 8.19619 11.3232 9.58601C11.3335 9.7169 11.4959 11.5273 12.4207 14.1981C14.1883 13.0098 16.1798 10.9449 18.0016 7.36524C17.984 7.36524 17.9694 7.3623 17.9518 7.3623Z" fill="#33CCCC"/>
<path d="M12.6899 17.5691C12.3431 16.8176 12.0505 16.0984 11.8076 15.4248C9.15468 16.8764 7.14562 16.5484 6.99491 16.5205C6.87785 17.1691 6.80176 17.8323 6.80176 18.5162C6.80176 19.9369 7.07685 21.29 7.55826 22.5386C7.62557 22.4533 9.54245 20.0722 12.6899 17.5691Z" fill="#33CCCC"/>
<path d="M26.7812 11.7698C24.9067 9.30053 22.0314 7.6401 18.761 7.40332C18.7376 7.45038 18.7171 7.49597 18.6923 7.54451C16.7212 11.3948 14.5951 13.642 12.6943 14.9495C12.927 15.5643 13.205 16.2202 13.5225 16.9026C16.9393 14.3465 21.5749 11.8654 26.7812 11.7698Z" fill="#33CCCC"/>
<path d="M28.7916 20.9769C28.9759 20.1724 29.0754 19.3355 29.0754 18.4752C29.0754 16.2794 28.4418 14.2337 27.3517 12.51C22.1879 12.5085 17.444 15.0426 13.9292 17.6472C14.257 18.3002 14.6286 18.9767 15.0457 19.6679C17.4044 18.2987 21.5513 18.1222 28.7916 20.9769Z" fill="#33CCCC"/>
<path d="M12.1704 28.0008C12.0958 27.6464 11.1359 22.7592 14.1283 20.2017C13.739 19.5502 13.3908 18.9119 13.082 18.2927C9.93163 20.7694 7.96647 23.1166 7.88745 23.2122C8.81955 25.1991 10.3179 26.8625 12.1704 28.0008Z" fill="#33CCCC"/>
<path d="M28.4755 21.9843C21.6333 19.0753 17.7278 19.1106 15.5183 20.3342C17.2011 22.955 19.5569 25.7567 22.8653 28.3863C25.4846 27.0906 27.52 24.7889 28.4755 21.9843Z" fill="#33CCCC"/>
<path d="M17.9255 29.5359C19.3404 29.5359 20.6925 29.2697 21.9377 28.7844C18.6483 26.2474 16.3159 23.5207 14.658 20.9514C12.011 23.4766 13.164 28.4491 13.2211 28.477C14.6478 29.1535 16.2398 29.5359 17.9255 29.5359Z" fill="#33CCCC"/>
<path d="M35.9893 18.0808C35.9893 8.09476 27.9356 0 18 0C8.06446 0 0.0106621 8.09476 0.0106621 18.0808C0.0106621 18.0808 -0.419537 23.5107 4.18535 32.0261C8.79023 40.5414 17.9985 56 17.9985 56C17.9985 56 27.2083 40.5429 31.8117 32.0261C36.4195 23.5107 35.9893 18.0808 35.9893 18.0808ZM28.2414 28.9126C24.8334 35.2469 18.019 46.7434 18.019 46.7434C18.0132 46.7316 18.0073 46.7213 18.0015 46.711C17.9956 46.7228 17.9898 46.7331 17.9839 46.7434C17.9839 46.7434 11.1695 35.2454 7.76156 28.9126C4.35362 22.5797 4.67115 18.5397 4.67115 18.5397C4.67115 11.1126 10.631 5.09158 17.9824 5.09158C17.9883 5.09158 17.9942 5.09158 18 5.09158C18.0059 5.09158 18.0117 5.09158 18.0176 5.09158C25.369 5.09158 31.3289 11.1126 31.3289 18.5397C31.3303 18.5397 31.6493 22.5783 28.2414 28.9126Z" fill="#33CCCC"/>
</g>
<g filter="url(#filter1_i_163_6471)">
<path d="M76.4096 31.52C76.4096 28.62 75.0896 27.3 72.2696 27.3H70.2696C69.7296 27.3 69.5096 26.92 69.5096 26.58C69.5096 26.2 69.7296 25.84 70.2696 25.84H73.6296C74.9896 25.84 75.6896 24.84 75.6896 23.86C75.6896 22.9 74.9896 21.92 73.6496 21.92H70.5296C67.5896 21.92 66.1096 23.42 66.1096 26.44C66.1096 29.34 67.5096 30.62 70.2496 30.62H72.2496C72.7896 30.62 73.0296 31 73.0296 31.38C73.0296 31.72 72.7896 32.1 72.2496 32.1H68.2096C66.9096 32.1 66.2496 33.08 66.2496 34.04C66.2496 35.04 66.8896 36 68.1696 36H72.0296C74.9496 36 76.4096 34.5 76.4096 31.52ZM83.0207 25.64H85.1207C85.9407 25.64 86.4207 25.98 86.4207 26.78C86.4207 27.5 86.0207 27.84 85.3607 27.84H85.0407C84.1807 27.84 83.5607 28.3 83.5607 29.32C83.5607 30.34 84.0007 30.98 85.2807 30.98H85.9607C88.4007 30.98 89.8607 29.02 89.8607 26.46C89.8607 23.68 88.3407 21.92 84.9607 21.92H81.0007C79.7407 21.92 79.1207 22.58 79.1207 23.88V34.12C79.1207 35.42 79.7807 36.08 81.0807 36.08C82.3807 36.08 83.0207 35.42 83.0207 34.08V25.64ZM91.9076 28.96C91.9076 32.94 95.1076 36.14 99.0876 36.14C103.068 36.14 106.288 32.94 106.288 28.96C106.288 24.98 103.068 21.78 99.0876 21.78C95.1076 21.78 91.9076 24.98 91.9076 28.96ZM95.8476 29.02C95.8476 27.2 97.3076 25.74 99.1076 25.74C100.908 25.74 102.388 27.2 102.388 29.02C102.388 30.84 100.908 32.26 99.1076 32.26C97.3076 32.26 95.8476 30.84 95.8476 29.02ZM115.905 35.08C116.285 35.78 116.925 36.08 117.545 36.08C118.585 36.08 119.645 35.3 119.645 34.16C119.645 33.82 119.525 33.42 119.265 32.96L117.405 30.04C118.705 29.5 119.765 28.12 119.765 26.2C119.765 24.06 118.305 21.92 115.005 21.92H110.805C109.545 21.92 108.925 22.58 108.925 23.88V34.04C108.925 35.34 109.585 36 110.885 36C112.185 36 112.825 35.34 112.825 34V25.64H114.925C115.745 25.64 116.145 25.9 116.145 26.62C116.145 27.42 115.705 27.78 115.045 27.78H114.765C113.705 27.78 113.265 28.46 113.265 29.62C113.265 30.08 113.405 30.48 113.545 30.68L115.905 35.08ZM129.063 25.84H130.383C131.603 25.84 132.343 24.94 132.343 23.88C132.343 22.82 131.603 21.92 130.383 21.92H123.823C122.603 21.92 121.883 22.82 121.883 23.88C121.883 24.94 122.603 25.84 123.823 25.84H125.183V34.14C125.183 35.42 126.063 36.08 127.103 36.08C128.163 36.08 129.063 35.42 129.063 34.14V25.84ZM144.945 31.52C144.945 28.62 143.625 27.3 140.805 27.3H138.805C138.265 27.3 138.045 26.92 138.045 26.58C138.045 26.2 138.265 25.84 138.805 25.84H142.165C143.525 25.84 144.225 24.84 144.225 23.86C144.225 22.9 143.525 21.92 142.185 21.92H139.065C136.125 21.92 134.645 23.42 134.645 26.44C134.645 29.34 136.045 30.62 138.785 30.62H140.785C141.325 30.62 141.565 31 141.565 31.38C141.565 31.72 141.325 32.1 140.785 32.1H136.745C135.445 32.1 134.785 33.08 134.785 34.04C134.785 35.04 135.425 36 136.705 36H140.565C143.485 36 144.945 34.5 144.945 31.52ZM154.396 30.82C154.936 30.82 155.396 30.62 155.856 30L157.276 28.12V34.14C157.276 35.42 158.156 36.08 159.196 36.08C160.256 36.08 161.156 35.42 161.156 34.14V23.92C161.156 22.62 160.156 21.86 159.096 21.86C158.396 21.86 157.676 22.2 157.176 22.84L154.396 26.38L151.636 22.84C151.136 22.2 150.396 21.86 149.696 21.86C148.636 21.86 147.656 22.62 147.656 23.92V34.14C147.656 35.42 148.556 36.08 149.616 36.08C150.636 36.08 151.536 35.4 151.536 34.14V28.12L152.976 30C153.396 30.54 153.876 30.82 154.396 30.82ZM170.262 27.68L171.122 30.22H169.242L170.262 27.68ZM172.742 34.82C173.042 35.66 173.602 36.08 174.462 36.08C175.502 36.08 176.542 35.3 176.542 34.24C176.542 33.92 176.502 33.66 176.402 33.46L172.062 23.04C171.762 22.32 171.322 21.86 170.302 21.86C169.242 21.86 168.822 22.32 168.502 23.02L163.742 33.46C163.642 33.64 163.602 33.9 163.602 34.24C163.602 35.36 164.662 36.08 165.702 36.08C166.362 36.08 167.022 35.68 167.402 34.82L168.022 33.28H172.182L172.742 34.82ZM182.923 25.64H185.023C185.843 25.64 186.323 25.98 186.323 26.78C186.323 27.5 185.923 27.84 185.263 27.84H184.943C184.083 27.84 183.463 28.3 183.463 29.32C183.463 30.34 183.903 30.98 185.183 30.98H185.863C188.303 30.98 189.763 29.02 189.763 26.46C189.763 23.68 188.243 21.92 184.863 21.92H180.903C179.643 21.92 179.023 22.58 179.023 23.88V34.12C179.023 35.42 179.683 36.08 180.983 36.08C182.283 36.08 182.923 35.42 182.923 34.08V25.64Z" fill="#33CCCC"/>
</g>
<defs>
<filter id="filter0_i_163_6471" x="0" y="0" width="36" height="60" filterUnits="userSpaceOnUse" color-interpolation-filters="sRGB">
<feFlood flood-opacity="0" result="BackgroundImageFix"/>
<feBlend mode="normal" in="SourceGraphic" in2="BackgroundImageFix" result="shape"/>
<feColorMatrix in="SourceAlpha" type="matrix" values="0 0 0 0 0 0 0 0 0 0 0 0 0 0 0 0 0 0 127 0" result="hardAlpha"/>
<feOffset dy="4"/>
<feGaussianBlur stdDeviation="2"/>
<feComposite in2="hardAlpha" operator="arithmetic" k2="-1" k3="1"/>
<feColorMatrix type="matrix" values="0 0 0 0 0 0 0 0 0 0 0 0 0 0 0 0 0 0 0.25 0"/>
<feBlend mode="normal" in2="shape" result="effect1_innerShadow_163_6471"/>
</filter>
<filter id="filter1_i_163_6471" x="66.1096" y="21.78" width="123.653" height="18.3601" filterUnits="userSpaceOnUse" color-interpolation-filters="sRGB">
<feFlood flood-opacity="0" result="BackgroundImageFix"/>
<feBlend mode="normal" in="SourceGraphic" in2="BackgroundImageFix" result="shape"/>
<feColorMatrix in="SourceAlpha" type="matrix" values="0 0 0 0 0 0 0 0 0 0 0 0 0 0 0 0 0 0 127 0" result="hardAlpha"/>
<feOffset dy="4"/>
<feGaussianBlur stdDeviation="2"/>
<feComposite in2="hardAlpha" operator="arithmetic" k2="-1" k3="1"/>
<feColorMatrix type="matrix" values="0 0 0 0 0 0 0 0 0 0 0 0 0 0 0 0 0 0 0.25 0"/>
<feBlend mode="normal" in2="shape" result="effect1_innerShadow_163_6471"/>
</filter>
</defs>
</svg>

<svg width="190" height="56" fill="none" xmlns="http://www.w3.org/2000/svg"><g filter="url(#a)" fill="#3CC"><path d="M11.601 14.672c-.859-2.624-.973-4.402-.979-4.516a11.176 11.176 0 0 0-3.405 5.583c.132.02 1.97.275 4.384-1.067ZM17.952 7.362c-2.49 0-4.778.834-6.629 2.224.01.13.173 1.941 1.098 4.612 1.767-1.188 3.759-3.253 5.58-6.833-.017 0-.032-.003-.05-.003ZM12.69 17.57a26.95 26.95 0 0 1-.882-2.145c-2.653 1.451-4.662 1.123-4.813 1.095a11.196 11.196 0 0 0-.193 1.996c0 1.42.275 2.774.756 4.023.068-.086 1.984-2.467 5.132-4.97Z"/><path d="M26.781 11.77a11.067 11.067 0 0 0-8.02-4.367c-.023.047-.044.093-.069.142-1.97 3.85-4.097 6.097-5.998 7.405.233.614.511 1.27.829 1.953 3.416-2.556 8.052-5.038 13.258-5.133Z"/><path d="M28.792 20.977a11.19 11.19 0 0 0-1.44-8.467c-5.164-.002-9.908 2.533-13.423 5.137.328.653.7 1.33 1.117 2.02 2.358-1.368 6.505-1.545 13.746 1.31ZM12.17 28c-.074-.354-1.034-5.24 1.958-7.798-.389-.652-.737-1.29-1.046-1.91-3.15 2.477-5.116 4.825-5.195 4.92a11.226 11.226 0 0 0 4.283 4.789Z"/><path d="M28.476 21.984c-6.843-2.909-10.748-2.873-12.958-1.65 1.683 2.621 4.039 5.423 7.347 8.052a11.176 11.176 0 0 0 5.61-6.402ZM17.925 29.536c1.415 0 2.767-.266 4.013-.752-3.29-2.537-5.622-5.263-7.28-7.833-2.647 2.526-1.494 7.498-1.437 7.526a10.944 10.944 0 0 0 4.704 1.059Z"/><path d="M35.99 18.08C35.99 8.096 27.935 0 18 0 8.064 0 .01 8.095.01 18.08c0 0-.43 5.43 4.175 13.946C8.79 40.541 18 56 18 56s9.21-15.457 13.813-23.974c4.607-8.515 4.177-13.945 4.177-13.945ZM28.24 28.914c-3.408 6.334-10.222 17.83-10.222 17.83l-.017-.032a.633.633 0 0 1-.018.032s-6.815-11.498-10.222-17.83C4.354 22.58 4.672 18.54 4.672 18.54c0-7.427 5.959-13.448 13.31-13.448h.036c7.351 0 13.31 6.02 13.31 13.448.002 0 .321 4.038-3.087 10.373Z"/></g><g filter="url(#b)"><path d="M76.41 31.52c0-2.9-1.32-4.22-4.14-4.22h-2c-.54 0-.76-.38-.76-.72 0-.38.22-.74.76-.74h3.36c1.36 0 2.06-1 2.06-1.98 0-.96-.7-1.94-2.04-1.94h-3.12c-2.94 0-4.42 1.5-4.42 4.52 0 2.9 1.4 4.18 4.14 4.18h2c.54 0 .78.38.78.76 0 .34-.24.72-.78.72h-4.04c-1.3 0-1.96.98-1.96 1.94 0 1 .64 1.96 1.92 1.96h3.86c2.92 0 4.38-1.5 4.38-4.48Zm6.61-5.88h2.1c.82 0 1.3.34 1.3 1.14 0 .72-.4 1.06-1.06 1.06h-.32c-.86 0-1.48.46-1.48 1.48s.44 1.66 1.72 1.66h.68c2.44 0 3.9-1.96 3.9-4.52 0-2.78-1.52-4.54-4.9-4.54H81c-1.26 0-1.88.66-1.88 1.96v10.24c0 1.3.66 1.96 1.96 1.96 1.3 0 1.94-.66 1.94-2v-8.44Zm8.888 3.32c0 3.98 3.2 7.18 7.18 7.18 3.98 0 7.2-3.2 7.2-7.18 0-3.98-3.22-7.18-7.2-7.18s-7.18 3.2-7.18 7.18Zm3.94.06c0-1.82 1.46-3.28 3.26-3.28 1.8 0 3.28 1.46 3.28 3.28 0 1.82-1.48 3.24-3.28 3.24-1.8 0-3.26-1.42-3.26-3.24Zm20.057 6.06c.38.7 1.02 1 1.64 1 1.04 0 2.1-.78 2.1-1.92 0-.34-.12-.74-.38-1.2l-1.86-2.92c1.3-.54 2.36-1.92 2.36-3.84 0-2.14-1.46-4.28-4.76-4.28h-4.2c-1.26 0-1.88.66-1.88 1.96v10.16c0 1.3.66 1.96 1.96 1.96 1.3 0 1.94-.66 1.94-2v-8.36h2.1c.82 0 1.22.26 1.22.98 0 .8-.44 1.16-1.1 1.16h-.28c-1.06 0-1.5.68-1.5 1.84 0 .46.14.86.28 1.06l2.36 4.4Zm13.158-9.24h1.32c1.22 0 1.96-.9 1.96-1.96s-.74-1.96-1.96-1.96h-6.56c-1.22 0-1.94.9-1.94 1.96s.72 1.96 1.94 1.96h1.36v8.3c0 1.28.88 1.94 1.92 1.94 1.06 0 1.96-.66 1.96-1.94v-8.3Zm15.882 5.68c0-2.9-1.32-4.22-4.14-4.22h-2c-.54 0-.76-.38-.76-.72 0-.38.22-.74.76-.74h3.36c1.36 0 2.06-1 2.06-1.98 0-.96-.7-1.94-2.04-1.94h-3.12c-2.94 0-4.42 1.5-4.42 4.52 0 2.9 1.4 4.18 4.14 4.18h2c.54 0 .78.38.78.76 0 .34-.24.72-.78.72h-4.04c-1.3 0-1.96.98-1.96 1.94 0 1 .64 1.96 1.92 1.96h3.86c2.92 0 4.38-1.5 4.38-4.48Zm9.451-.7c.54 0 1-.2 1.46-.82l1.42-1.88v6.02c0 1.28.88 1.94 1.92 1.94 1.06 0 1.96-.66 1.96-1.94V23.92c0-1.3-1-2.06-2.06-2.06-.7 0-1.42.34-1.92.98l-2.78 3.54-2.76-3.54c-.5-.64-1.24-.98-1.94-.98-1.06 0-2.04.76-2.04 2.06v10.22c0 1.28.9 1.94 1.96 1.94 1.02 0 1.92-.68 1.92-1.94v-6.02l1.44 1.88c.42.54.9.82 1.42.82Zm15.866-3.14.86 2.54h-1.88l1.02-2.54Zm2.48 7.14c.3.84.86 1.26 1.72 1.26 1.04 0 2.08-.78 2.08-1.84 0-.32-.04-.58-.14-.78l-4.34-10.42c-.3-.72-.74-1.18-1.76-1.18-1.06 0-1.48.46-1.8 1.16l-4.76 10.44c-.1.18-.14.44-.14.78 0 1.12 1.06 1.84 2.1 1.84.66 0 1.32-.4 1.7-1.26l.62-1.54h4.16l.56 1.54Zm10.181-9.18h2.1c.82 0 1.3.34 1.3 1.14 0 .72-.4 1.06-1.06 1.06h-.32c-.86 0-1.48.46-1.48 1.48s.44 1.66 1.72 1.66h.68c2.44 0 3.9-1.96 3.9-4.52 0-2.78-1.52-4.54-4.9-4.54h-3.96c-1.26 0-1.88.66-1.88 1.96v10.24c0 1.3.66 1.96 1.96 1.96 1.3 0 1.94-.66 1.94-2v-8.44Z" fill="#3CC"/></g><defs><filter id="a" x="0" y="0" width="36" height="60" filterUnits="userSpaceOnUse" color-interpolation-filters="sRGB"><feFlood flood-opacity="0" result="BackgroundImageFix"/><feBlend in="SourceGraphic" in2="BackgroundImageFix" result="shape"/><feColorMatrix in="SourceAlpha" values="0 0 0 0 0 0 0 0 0 0 0 0 0 0 0 0 0 0 127 0" result="hardAlpha"/><feOffset dy="4"/><feGaussianBlur stdDeviation="2"/><feComposite in2="hardAlpha" operator="arithmetic" k2="-1" k3="1"/><feColorMatrix values="0 0 0 0 0 0 0 0 0 0 0 0 0 0 0 0 0 0 0.25 0"/><feBlend in2="shape" result="effect1_innerShadow_163_6471"/></filter><filter id="b" x="66.11" y="21.78" width="123.653" height="18.36" filterUnits="userSpaceOnUse" color-interpolation-filters="sRGB"><feFlood flood-opacity="0" result="BackgroundImageFix"/><feBlend in="SourceGraphic" in2="BackgroundImageFix" result="shape"/><feColorMatrix in="SourceAlpha" values="0 0 0 0 0 0 0 0 0 0 0 0 0 0 0 0 0 0 127 0" result="hardAlpha"/><feOffset dy="4"/><feGaussianBlur stdDeviation="2"/><feComposite in2="hardAlpha" operator="arithmetic" k2="-1" k3="1"/><feColorMatrix values="0 0 0 0 0 0 0 0 0 0 0 0 0 0 0 0 0 0 0.25 0"/><feBlend in2="shape" result="effect1_innerShadow_163_6471"/></filter></defs></svg>
